actions/48/view-refresh.svg

<?xml version="1.0" encoding="UTF-8" standalone="no"?>
<!-- Created with Inkscape (http://www.inkscape.org/) -->

<svg
   xmlns:svg="http://www.w3.org/2000/svg"
   xmlns="http://www.w3.org/2000/svg"
   xmlns:xlink="http://www.w3.org/1999/xlink"
   version="1.1"
   width="48"
   height="48"
   id="svg2474">
  <defs
     id="defs2476">
    <linearGradient
       id="linearGradient8838">
      <stop
         id="stop8840"
         style="stop-color:black;stop-opacity:1"
         offset="0" />
      <stop
         id="stop8842"
         style="stop-color:black;stop-opacity:0"
         offset="1" />
    </linearGradient>
    <radialGradient
       cx="62.625"
       cy="4.625"
       r="10.625"
       fx="62.625"
       fy="4.625"
       id="radialGradient3533"
       xlink:href="#linearGradient8838"
       gradientUnits="userSpaceOnUse"
       gradientTransform="matrix(1,0,0,0.341176,0,3.047059)" />
    <linearGradient
       id="linearGradient3533">
      <stop
         id="stop3535"
         style="stop-color:#b0cce6;stop-opacity:1"
         offset="0" />
      <stop
         id="stop3545"
         style="stop-color:#83acd5;stop-opacity:1"
         offset="1" />
    </linearGradient>
    <linearGradient
       x1="15.372947"
       y1="5.0471625"
       x2="15.372947"
       y2="22.599676"
       id="linearGradient3573"
       xlink:href="#linearGradient3533"
       gradientUnits="userSpaceOnUse"
       gradientTransform="matrix(0.9543659,0,0,0.9543659,0.4933039,2.8946347)" />
    <linearGradient
       id="linearGradient3266">
      <stop
         id="stop3268"
         style="stop-color:#387ab8;stop-opacity:1"
         offset="0" />
      <stop
         id="stop3270"
         style="stop-color:#387ab8;stop-opacity:0"
         offset="1" />
    </linearGradient>
    <linearGradient
       x1="33.686768"
       y1="35.773647"
       x2="37.039948"
       y2="29.856804"
       id="linearGradient3272"
       xlink:href="#linearGradient3266"
       gradientUnits="userSpaceOnUse" />
    <linearGradient
       id="linearGradient3276">
      <stop
         id="stop3278"
         style="stop-color:#83acd5;stop-opacity:1"
         offset="0" />
      <stop
         id="stop3280"
         style="stop-color:#83acd5;stop-opacity:0"
         offset="1" />
    </linearGradient>
    <linearGradient
       x1="31.226292"
       y1="34.600941"
       x2="34.96563"
       y2="26.842505"
       id="linearGradient3282"
       xlink:href="#linearGradient3276"
       gradientUnits="userSpaceOnUse" />
    <linearGradient
       id="linearGradient4873">
      <stop
         id="stop4875"
         style="stop-color:white;stop-opacity:1"
         offset="0" />
      <stop
         id="stop4877"
         style="stop-color:white;stop-opacity:0"
         offset="1" />
    </linearGradient>
    <linearGradient
       x1="21.628975"
       y1="2.1102102"
       x2="22.245434"
       y2="43.366352"
       id="linearGradient3567"
       xlink:href="#linearGradient4873"
       gradientUnits="userSpaceOnUse"
       gradientTransform="matrix(0.9543659,0,0,0.9543659,0.4933039,2.8946347)" />
    <linearGradient
       id="linearGradient3319">
      <stop
         id="stop3321"
         style="stop-color:white;stop-opacity:0"
         offset="0" />
      <stop
         id="stop3323"
         style="stop-color:white;stop-opacity:0.14383562"
         offset="0.57424062" />
      <stop
         id="stop3325"
         style="stop-color:white;stop-opacity:0"
         offset="1" />
    </linearGradient>
    <linearGradient
       x1="33.386703"
       y1="41.887085"
       x2="39.686337"
       y2="28.50532"
       id="linearGradient3317"
       xlink:href="#linearGradient3319"
       gradientUnits="userSpaceOnUse"
       gradientTransform="matrix(0.9543659,0,0,0.9543659,0.4933039,2.8946347)" />
  </defs>
  <g
     id="layer1">
    <path
       d="m 73.25,4.625 a 10.625,3.625 0 1 1 -21.25,0 10.625,3.625 0 1 1 21.25,0 z"
       transform="matrix(2.149872,0,0,2.5636643,-110.63573,26.84977)"
       id="path8836"
       style="opacity:0.56043958;fill:url(#radialGradient3533);fill-opacity:1;fill-rule:evenodd;stroke:none;stroke-width:0.99999988;marker:none;visibility:visible;display:inline;overflow:visible" />
    <path
       d="m 23.828332,33.831672 c -4.894952,-0.05388 -8.93571,-4.723167 -8.881593,-9.596431 0.05412,-4.873262 4.442989,-9.064661 9.337944,-9.010782 2.36391,0.02602 4.654297,0.785332 6.352073,2.423126 l -4.404257,4.061613 16.018276,0 c 0,0 0,-15.8058548 0,-15.8058548 L 38.028897,10.10953 C 34.320671,6.4655361 30.034152,4.5561514 24.561278,4.4959126 13.427719,4.3733674 4.5481647,13.442896 4.4250734,24.527122 4.3019822,35.611347 13.160807,44.280977 24.294366,44.403521"
       id="path3372"
       style="fill:url(#linearGradient3573);fill-opacity:1;stroke:#387ab8;stroke-width:1;stroke-linecap:butt;stroke-linejoin:round;stroke-miterlimit:4;stroke-opacity:1;stroke-dasharray:none" />
    <path
       d="m 23.864113,44.401664 c 9.310119,0.102473 19.728816,-7.091093 19.712061,-19.52578 l -9.859131,-0.07674 c -0.181508,5.072466 -5.499282,9.216746 -9.919703,9.027858"
       id="path3453"
       style="fill:url(#linearGradient3282);fill-opacity:1;stroke:url(#linearGradient3272);stroke-width:1;stroke-linecap:butt;stroke-linejoin:miter;stroke-miterlimit:4;stroke-opacity:1;stroke-dasharray:none" />
    <path
       d="m 23.797732,34.846272 c -5.423155,-0.07929 -9.986427,-4.239795 -9.992131,-10.521335 -0.0049,-5.396381 5.110795,-10.342472 10.533951,-10.263186 2.673075,0.03908 5.968651,1.188438 7.982437,3.465252 l -3.235604,3.079554 12.07035,0.02029 c 0,0 0,-12.0722053 0,-12.0722053 L 38.0018,11.791087 C 34.459778,7.840187 29.935527,5.818175 24.395124,5.7627334 13.797337,5.6566839 5.6738667,14.03615 5.5919732,24.633904 5.8510448,36.489643 14.984754,43.252661 24.294516,43.455396"
       id="path3370"
       style="opacity:0.4;fill:none;stroke:url(#linearGradient3567);stroke-width:1.19299996;stroke-linecap:butt;stroke-linejoin:miter;stroke-miterlimit:4;stroke-opacity:1;stroke-dasharray:none" />
    <path
       d="m 23.932221,43.168072 c 7.952554,0 18.585773,-5.406453 18.685963,-18.260886 l -8.056886,-0.206291 c 0.0072,5.215907 -5.559449,10.101408 -11.122699,10.266355"
       id="path2557"
       style="fill:none;stroke:url(#linearGradient3317);stroke-width:1.1929574;stroke-linecap:butt;stroke-linejoin:round;stroke-miterlimit:4;stroke-opacity:1;stroke-dasharray:none" />
  </g>
</svg>

<?xml version="1.0" encoding="UTF-8" standalone="no"?>
<!-- Created with Inkscape (http://www.inkscape.org/) -->
<svg
   xmlns:dc="http://purl.org/dc/elements/1.1/"
   xmlns:cc="http://creativecommons.org/ns#"
   xmlns:rdf="http://www.w3.org/1999/02/22-rdf-syntax-ns#"
   xmlns:svg="http://www.w3.org/2000/svg"
   xmlns="http://www.w3.org/2000/svg"
   xmlns:xlink="http://www.w3.org/1999/xlink"
   xmlns:sodipodi="http://sodipodi.sourceforge.net/DTD/sodipodi-0.dtd"
   xmlns:inkscape="http://www.inkscape.org/namespaces/inkscape"
   width="48px"
   height="48px"
   id="svg2474"
   sodipodi:version="0.32"
   inkscape:version="0.46"
   sodipodi:docname="view-refresh.svg"
   inkscape:output_extension="org.inkscape.output.svg.inkscape">
  <defs
     id="defs2476">
    <linearGradient
       inkscape:collect="always"
       id="linearGradient8838">
      <stop
         style="stop-color:#000000;stop-opacity:1;"
         offset="0"
         id="stop8840" />
      <stop
         style="stop-color:#000000;stop-opacity:0;"
         offset="1"
         id="stop8842" />
    </linearGradient>
    <radialGradient
       inkscape:collect="always"
       xlink:href="#linearGradient8838"
       id="radialGradient3533"
       gradientUnits="userSpaceOnUse"
       gradientTransform="matrix(1,0,0,0.341176,0,3.047059)"
       cx="62.625"
       cy="4.625"
       fx="62.625"
       fy="4.625"
       r="10.625" />
    <linearGradient
       id="linearGradient3533">
      <stop
         id="stop3535"
         style="stop-color:#b0cce6;stop-opacity:1;"
         offset="0" />
      <stop
         id="stop3545"
         style="stop-color:#83acd5;stop-opacity:1;"
         offset="1" />
    </linearGradient>
    <linearGradient
       inkscape:collect="always"
       xlink:href="#linearGradient3533"
       id="linearGradient3573"
       gradientUnits="userSpaceOnUse"
       gradientTransform="matrix(0.9543659,0,0,0.9543659,0.4933039,2.8946347)"
       x1="15.372947"
       y1="5.0471625"
       x2="15.372947"
       y2="22.599676" />
    <linearGradient
       id="linearGradient3266">
      <stop
         style="stop-color:#387ab8;stop-opacity:1"
         offset="0"
         id="stop3268" />
      <stop
         style="stop-color:#387ab8;stop-opacity:0;"
         offset="1"
         id="stop3270" />
    </linearGradient>
    <linearGradient
       inkscape:collect="always"
       xlink:href="#linearGradient3266"
       id="linearGradient3272"
       x1="33.686768"
       y1="35.773647"
       x2="37.039948"
       y2="29.856804"
       gradientUnits="userSpaceOnUse" />
    <linearGradient
       inkscape:collect="always"
       id="linearGradient3276">
      <stop
         style="stop-color:#83acd5;stop-opacity:1;"
         offset="0"
         id="stop3278" />
      <stop
         style="stop-color:#83acd5;stop-opacity:0;"
         offset="1"
         id="stop3280" />
    </linearGradient>
    <linearGradient
       inkscape:collect="always"
       xlink:href="#linearGradient3276"
       id="linearGradient3282"
       x1="31.226292"
       y1="34.600941"
       x2="34.96563"
       y2="26.842505"
       gradientUnits="userSpaceOnUse" />
    <linearGradient
       id="linearGradient4873"
       inkscape:collect="always">
      <stop
         id="stop4875"
         offset="0"
         style="stop-color:#ffffff;stop-opacity:1;" />
      <stop
         id="stop4877"
         offset="1"
         style="stop-color:#ffffff;stop-opacity:0;" />
    </linearGradient>
    <linearGradient
       inkscape:collect="always"
       xlink:href="#linearGradient4873"
       id="linearGradient3567"
       gradientUnits="userSpaceOnUse"
       gradientTransform="matrix(0.9543659,0,0,0.9543659,0.4933039,2.8946347)"
       x1="21.628975"
       y1="2.1102102"
       x2="22.245434"
       y2="43.366352" />
    <linearGradient
       id="linearGradient3319">
      <stop
         style="stop-color:#ffffff;stop-opacity:0;"
         offset="0"
         id="stop3321" />
      <stop
         id="stop3323"
         offset="0.57424062"
         style="stop-color:#ffffff;stop-opacity:0.14383562;" />
      <stop
         style="stop-color:#ffffff;stop-opacity:0;"
         offset="1"
         id="stop3325" />
    </linearGradient>
    <linearGradient
       inkscape:collect="always"
       xlink:href="#linearGradient3319"
       id="linearGradient3317"
       gradientUnits="userSpaceOnUse"
       gradientTransform="matrix(0.9543659,0,0,0.9543659,0.4933039,2.8946347)"
       x1="33.386703"
       y1="41.887085"
       x2="39.686337"
       y2="28.50532" />
  </defs>
  <sodipodi:namedview
     id="base"
     pagecolor="#ffffff"
     bordercolor="#666666"
     borderopacity="1.0"
     inkscape:pageopacity="0.0"
     inkscape:pageshadow="2"
     inkscape:zoom="7"
     inkscape:cx="24"
     inkscape:cy="24"
     inkscape:current-layer="layer1"
     showgrid="true"
     inkscape:grid-bbox="true"
     inkscape:document-units="px"
     inkscape:window-width="640"
     inkscape:window-height="720"
     inkscape:window-x="0"
     inkscape:window-y="24" />
  <metadata
     id="metadata2479">
    <rdf:RDF>
      <cc:Work
         rdf:about="">
        <dc:format>image/svg+xml</dc:format>
        <dc:type
           rdf:resource="http://purl.org/dc/dcmitype/StillImage" />
      </cc:Work>
    </rdf:RDF>
  </metadata>
  <g
     id="layer1"
     inkscape:label="Layer 1"
     inkscape:groupmode="layer">
    <path
       transform="matrix(2.149872,0,0,2.5636643,-110.63573,26.84977)"
       d="M 73.25,4.625 A 10.625,3.625 0 1 1 52,4.625 A 10.625,3.625 0 1 1 73.25,4.625 z"
       sodipodi:ry="3.625"
       sodipodi:rx="10.625"
       sodipodi:cy="4.625"
       sodipodi:cx="62.625"
       id="path8836"
       style="opacity:0.56043958000000005;fill:url(#radialGradient3533);fill-opacity:1;fill-rule:evenodd;stroke:none;stroke-width:0.99999987999999995;stroke-linecap:butt;stroke-linejoin:round;marker:none;marker-start:none;marker-mid:none;marker-end:none;stroke-miterlimit:4;stroke-dasharray:none;stroke-dashoffset:0;stroke-opacity:1;visibility:visible;display:inline;overflow:visible"
       sodipodi:type="arc" />
    <path
       id="path3372"
       style="fill:url(#linearGradient3573);fill-opacity:1;stroke:#387ab8;stroke-width:1;stroke-linecap:butt;stroke-linejoin:round;stroke-miterlimit:4;stroke-dasharray:none;stroke-opacity:1"
       d="M 23.828332,33.831672 C 18.93338,33.777796 14.892622,29.108505 14.946739,24.235241 C 15.000858,19.361979 19.389728,15.17058 24.284683,15.224459 C 26.648593,15.250477 28.93898,16.009791 30.636756,17.647585 L 26.232499,21.709198 L 42.250775,21.709198 C 42.250775,21.709198 42.250775,5.9033432 42.250775,5.9033432 L 38.028897,10.10953 C 34.320671,6.4655361 30.034152,4.5561514 24.561278,4.4959126 C 13.427719,4.3733674 4.5481647,13.442896 4.4250734,24.527122 C 4.3019822,35.611347 13.160807,44.280977 24.294366,44.403521"
       sodipodi:nodetypes="csscccccssc" />
    <path
       id="path3453"
       style="fill:url(#linearGradient3282);fill-opacity:1;stroke:url(#linearGradient3272);stroke-width:1;stroke-linecap:butt;stroke-linejoin:miter;stroke-miterlimit:4;stroke-dasharray:none;stroke-opacity:1"
       d="M 23.864113,44.401664 C 33.174232,44.504137 43.592929,37.310571 43.576174,24.875884 L 33.717043,24.79914 C 33.535535,29.871606 28.217761,34.015886 23.79734,33.826998"
       sodipodi:nodetypes="cccc" />
    <path
       id="path3370"
       style="opacity:0.40000000000000002;fill:none;fill-opacity:1;stroke:url(#linearGradient3567);stroke-width:1.19300000000000006;stroke-linecap:butt;stroke-linejoin:miter;stroke-miterlimit:4;stroke-dasharray:none;stroke-opacity:1"
       d="M 23.797732,34.846272 C 18.374577,34.766986 13.811305,30.606477 13.805601,24.324937 C 13.800733,18.928556 18.916396,13.982465 24.339552,14.061751 C 27.012627,14.100831 30.308203,15.250189 32.321989,17.527003 L 29.086385,20.606557 L 41.156735,20.626849 C 41.156735,20.626849 41.156735,8.5546437 41.156735,8.5546437 L 38.0018,11.791087 C 34.459778,7.840187 29.935527,5.818175 24.395124,5.7627334 C 13.797337,5.6566839 5.6738667,14.03615 5.5919732,24.633904 C 5.8510448,36.489643 14.984754,43.252661 24.294516,43.455396"
       sodipodi:nodetypes="csscccccscc" />
    <path
       id="path2557"
       style="fill:none;fill-opacity:1;stroke:url(#linearGradient3317);stroke-width:1.19295740000000006;stroke-linecap:butt;stroke-linejoin:round;stroke-miterlimit:4;stroke-dasharray:none;stroke-opacity:1"
       d="M 23.932221,43.168072 C 31.884775,43.168072 42.517994,37.761619 42.618184,24.907186 L 34.561298,24.700895 C 34.568534,29.916802 29.001849,34.802303 23.438599,34.96725"
       sodipodi:nodetypes="cccc" />
  </g>
</svg>
